symbols/web/bedroom_baby/materialsymbolsoutlined/bedroom_baby_wght700_48px.svg

<svg xmlns="http://www.w3.org/2000/svg" height="48" width="48"><path d="M24.1 36.7q4.05 0 7.875-1.525T38.55 30.9l-2.15-2q-.45.45-1.125.975-.675.525-1.325.875L32 27v-5.05h2.3V20.3H22.65l-3.85-6.4h-6.1l1.7 1.25-3.35 3.55 1.65 1.65 3.35-2.3V27l-1.95 3.75q-.65-.35-1.35-.875-.7-.525-1.15-.975l-2.15 2q2.75 2.75 6.675 4.275Q20.05 36.7 24.1 36.7Zm0-2.85q-1.95 0-3.975-.425Q18.1 33 16.05 31.9l2.25-3.7q1.5.55 2.9.85 1.4.3 2.8.3t2.8-.3q1.4-.3 2.9-.85l2.3 3.7q-2.05 1.05-3.975 1.5-1.925.45-3.925.45ZM7.45 45.25q-1.95 0-3.325-1.375Q2.75 42.5 2.75 40.55V7.45q0-1.95 1.375-3.35Q5.5 2.7 7.45 2.7h33.1q1.95 0 3.35 1.4 1.4 1.4 1.4 3.35v33.1q0 1.95-1.4 3.325-1.4 1.375-3.35 1.375Zm0-4.7h33.1V7.45H7.45v33.1Zm0 0V7.45v33.1Z"/></svg>

<svg xmlns="http://www.w3.org/2000/svg" height="48" width="48"><path d="M24.1 36.7Q28.15 36.7 31.975 35.175Q35.8 33.65 38.55 30.9L36.4 28.9Q35.95 29.35 35.275 29.875Q34.6 30.4 33.95 30.75L32 27V21.95H34.3V20.3H22.65L18.8 13.9H12.7L14.4 15.15L11.05 18.7L12.7 20.35L16.05 18.05V27L14.1 30.75Q13.45 30.4 12.75 29.875Q12.05 29.35 11.6 28.9L9.45 30.9Q12.2 33.65 16.125 35.175Q20.05 36.7 24.1 36.7ZM24.1 33.85Q22.15 33.85 20.125 33.425Q18.1 33 16.05 31.9L18.3 28.2Q21.3 29.35 24 29.35Q26.7 29.35 29.7 28.2L32 31.9Q29.95 32.95 28.025 33.4Q26.1 33.85 24.1 33.85ZM7.45 45.25Q5.5 45.25 4.125 43.875Q2.75 42.5 2.75 40.55V7.45Q2.75 5.5 4.125 4.1Q5.5 2.7 7.45 2.7H40.55Q42.5 2.7 43.9 4.1Q45.3 5.5 45.3 7.45V40.55Q45.3 42.5 43.9 43.875Q42.5 45.25 40.55 45.25ZM7.45 40.55H40.55Q40.55 40.55 40.55 40.55Q40.55 40.55 40.55 40.55V7.45Q40.55 7.45 40.55 7.45Q40.55 7.45 40.55 7.45H7.45Q7.45 7.45 7.45 7.45Q7.45 7.45 7.45 7.45V40.55Q7.45 40.55 7.45 40.55Q7.45 40.55 7.45 40.55ZM7.45 40.55Q7.45 40.55 7.45 40.55Q7.45 40.55 7.45 40.55V7.45Q7.45 7.45 7.45 7.45Q7.45 7.45 7.45 7.45Q7.45 7.45 7.45 7.45Q7.45 7.45 7.45 7.45V40.55Q7.45 40.55 7.45 40.55Q7.45 40.55 7.45 40.55Z"/></svg>
